X:348
T:Sands o' Munness
R:Strathspey
D:Willie Hunter, Leaving Lerwick Harbour
Z:Nigel Gatherer
M:4/4
L:1/8
K:A
"A"A2 G>A "D"F>A"A"E>G|A>ce<a f>ec<A|"Bm7"B2 G>B E>BG<B|"E"g>fe^d f>e=d<B|
"A"A2 G>A "D"F>A"A"E>G|A>ce<a f>ec<A|"Bm7"f>ed>c B>ag>f|"A"e>dB<G A2|]
"A"c>A|a>c'e<a c>eA<c|E>Ac>e a>gf>e|"Bm7"^d>e=d>e "E"B>eg>f|"E7"(3efe (3dcB "A"c2(3efg|
"A"a>c'e<a c>eA<c|E>Ac>e a>gf>e|"Bm7"^d>e=d>e "E"B>eg>f|"E7"(3efe (3dcB "A"A2|]
